assets/images/afrikons/alarm-outline.svg

<svg viewBox="0 0 50 50" xmlns="http://www.w3.org/2000/svg"><path d="m0 0h50v50h-50z" fill="none"/><path d="m25 7.55a19.17 19.17 0 1 0 19.17 19.17 19.19 19.19 0 0 0 -19.17-19.17zm4.59 32.92-6.54-13.27v-14.2h4.11v13.24l6.12 12.42z" fill="none"/><path d="m41.46 10.26a23.28 23.28 0 1 0 -32.92 32.92 23.28 23.28 0 1 0 32.92-32.92zm-16.46 35.63a19.17 19.17 0 1 1 19.17-19.17 19.19 19.19 0 0 1 -19.17 19.17z"/><path d="m14 3.59-1-1.79-1-1.8a38.1 38.1 0 0 0 -8.48 6.54l3.06 2.74a34.58 34.58 0 0 1 7.42-5.69z"/><path d="m43.46 9.28 3.07-2.73a37.94 37.94 0 0 0 -8.53-6.55l-2 3.59a34.15 34.15 0 0 1 7.46 5.69z"/><path d="m27.16 13.02h-4.11v14.18l6.54 13.27 3.68-1.81-6.11-12.42z"/></svg>

<svg xmlns="http://www.w3.org/2000/svg" viewBox="0 0 50 50"><defs><style>.cls-1{fill:none;}</style></defs><title>alarm-outline</title><g id="Layer_2" data-name="Layer 2"><g id="Layer_1-2" data-name="Layer 1"><rect class="cls-1" width="50" height="50"/><path class="cls-1" d="M25,7.55A19.17,19.17,0,1,0,44.17,26.72,19.19,19.19,0,0,0,25,7.55Zm4.59,32.92L23.05,27.2V13h4.11V26.24l6.12,12.42Z"/><path d="M41.46,10.26A23.28,23.28,0,1,0,8.54,43.18,23.28,23.28,0,1,0,41.46,10.26ZM25,45.89A19.17,19.17,0,1,1,44.17,26.72,19.19,19.19,0,0,1,25,45.89Z"/><path d="M14,3.59h0L13,1.8,12,0A38.1,38.1,0,0,0,3.52,6.54L6.58,9.28A34.58,34.58,0,0,1,14,3.59Z"/><path d="M43.46,9.28l3.07-2.73A37.94,37.94,0,0,0,38,0L36,3.59A34.15,34.15,0,0,1,43.46,9.28Z"/><polygon points="27.16 13.02 23.05 13.02 23.05 27.2 29.59 40.47 33.27 38.66 27.16 26.24 27.16 13.02"/></g></g></svg>
